web/src/assets/images/sponsors/26dev.svg

<svg height="152" viewBox="0 0 150 152" width="150" xmlns="http://www.w3.org/2000/svg"><g fill="#fff"><path d="m13.373494 105.795181c6.8434077 0 12.3252806 2.06022 16.4457831 6.180723 4.1205025 4.120502 6.1807229 9.638519 6.1807229 16.554216 0 6.915698-2.0602204 12.433715-6.1807229 16.554217-4.1205025 4.120503-9.6023754 6.180723-16.4457831 6.180723h-13.373494v-45.469879zm-7.66265063 40.481927h7.66265063c5.0602662 0 9.0843224-1.674682 12.0722891-5.024096 2.9879668-3.349414 4.4819277-7.602384 4.4819277-12.759036s-1.506009-9.385525-4.5180722-12.686747c-3.0120633-3.301222-7.0240714-4.951807-12.0361446-4.951807h-7.66265063zm56.53012053-40.481927h27.9759036v4.915662h-22.2650603v15.253012h20.9638555v4.843374h-20.9638555v15.469879h22.2650603v4.987952h-27.9759036zm55.1566261 0 13.012049 38.240964 13.084337-38.240964h6l-16.120482 45.469879h-5.927711l-16.048193-45.469879z"/><path d="m11.6385542 81.9759036h52.7710844v10.5542169h-64.19277113v-13.4457832c0-10.6988486 4.04815229-18.5541918 12.14457833-23.566265 2.6024226-1.6385624 5.49396-3.0843311 8.6746988-4.3373494l17.9277108-7.2289157c9.2530583-3.6626689 13.8795181-9.686705 13.8795181-18.0722891 0-4.6265292-1.5903455-8.4096239-4.7710843-11.3493976-3.1807388-2.9397738-7.6385256-4.4096386-13.373494-4.4096386-5.7349685 0-10.4096205 1.2048073-14.0240964 3.6144579s-5.7108405 6.0240722-6.2891566 10.8433735h-12.57831328c.48193012-7.903654 3.6626212-13.9758825 9.54216868-18.21686752 5.8795475-4.24098506 13.4216407-6.36144578 22.626506-6.36144578s16.6987663 2.50599904 22.4819277 7.51807229c5.7831615 5.01207321 8.6746988 11.20478241 8.6746988 18.57831321 0 7.3735309-1.9035954 13.228894-5.7108434 17.5662651-3.8072479 4.3373711-9.0361113 7.8072159-15.6867469 10.4096386l-18.3614458 7.3734939c-4.6265292 1.9277205-8.0722779 4.1204697-10.3373494 6.5783133-2.2650716 2.4578436-3.3975904 5.6626308-3.3975904 9.6144578zm124.6265058-57.3975903c-1.638562-9.4458304-6.795137-14.1686747-15.469879-14.1686747s-15.349375 3.5662294-20.024097 10.6987951c-4.6747217 7.1325658-7.0120479 16.8674082-7.0120479 29.2048193 0 5.1084593.2409615 9.3493807.7228916 12.7228916.578316-8.8675142 3.3011801-15.3011848 8.1686743-19.3012048 4.867495-4.00002 11.108396-6 18.722892-6s14.168648 2.674672 19.662651 8.0240963c5.494003 5.3494244 8.240963 12.1927294 8.240963 20.5301205s-2.843344 15.0843116-8.53012 20.2409639c-5.686776 5.1566521-13.15658 7.7349397-22.409639 7.7349397-10.795234 0-19.5180385-4.337306-26.1686743-13.0120482-6.6506357-8.6747421-9.9759036-20.0722185-9.9759036-34.192771 0-14.1205526 3.3734602-25.4939328 10.1204819-34.120482 6.7470217-8.62654912 15.951749-12.939759 27.614458-12.939759 8.096426 0 14.698769 2.26503759 19.807229 6.79518072 5.108459 4.53014318 8.048188 10.45779468 8.819277 17.78313258zm-17.927711 23.2771084c-5.397617 0-9.903596 1.7108263-13.518072 5.1325301-3.614476 3.4217039-5.4216866 7.783106-5.4216866 13.0843374 0 5.3012313 1.7831146 9.5662489 5.3493976 12.7951807 3.566282 3.2289318 8.096358 4.8433735 13.590361 4.8433735s10.048175-1.5903456 13.662651-4.7710844 5.421687-7.5662371 5.421687-13.1566265-1.807211-9.9758877-5.421687-13.1566265-8.168648-4.7710843-13.662651-4.7710843z"/></g></svg>

<?xml version="1.0" encoding="UTF-8"?>
<svg width="150px" height="152px" viewBox="0 0 150 152" version="1.1" xmlns="http://www.w3.org/2000/svg" xmlns:xlink="http://www.w3.org/1999/xlink">
    <!-- Generator: Sketch 54.1 (76490) - https://sketchapp.com -->
    <title>logo</title>
    <desc>Created with Sketch.</desc>
    <g id="Welcome" stroke="none" stroke-width="1" fill="none" fill-rule="evenodd">
        <g id="Desktop-HD" transform="translate(-644.000000, -369.000000)" fill="#FFFFFF" fill-rule="nonzero">
            <g id="logo" transform="translate(644.000000, 369.000000)">
                <g id="Group">
                    <path d="M13.373494,105.795181 C20.2169017,105.795181 25.6987746,107.855401 29.8192771,111.975904 C33.9397796,116.096406 36,121.614423 36,128.53012 C36,135.445818 33.9397796,140.963835 29.8192771,145.084337 C25.6987746,149.20484 20.2169017,151.26506 13.373494,151.26506 L0,151.26506 L0,105.795181 L13.373494,105.795181 Z M5.71084337,146.277108 L13.373494,146.277108 C18.4337602,146.277108 22.4578164,144.602426 25.4457831,141.253012 C28.4337499,137.903598 29.9277108,133.650628 29.9277108,128.493976 C29.9277108,123.337324 28.4217018,119.108451 25.4096386,115.807229 C22.3975753,112.506007 18.3855672,110.855422 13.373494,110.855422 L5.71084337,110.855422 L5.71084337,146.277108 Z M62.2409639,105.795181 L90.2168675,105.795181 L90.2168675,110.710843 L67.9518072,110.710843 L67.9518072,125.963855 L88.9156627,125.963855 L88.9156627,130.807229 L67.9518072,130.807229 L67.9518072,146.277108 L90.2168675,146.277108 L90.2168675,151.26506 L62.2409639,151.26506 L62.2409639,105.795181 Z M117.39759,105.795181 L130.409639,144.036145 L143.493976,105.795181 L149.493976,105.795181 L133.373494,151.26506 L127.445783,151.26506 L111.39759,105.795181 L117.39759,105.795181 Z" id="DEV"></path>
                    <path d="M11.6385542,81.9759036 L64.4096386,81.9759036 L64.4096386,92.5301205 L0.21686747,92.5301205 L0.21686747,79.0843373 C0.21686747,68.3854887 4.26501976,60.5301455 12.3614458,55.5180723 C14.9638684,53.8795099 17.8554058,52.4337412 21.0361446,51.1807229 L38.9638554,43.9518072 C48.2169137,40.2891383 52.8433735,34.2651022 52.8433735,25.8795181 C52.8433735,21.2529889 51.253028,17.4698942 48.0722892,14.5301205 C44.8915504,11.5903467 40.4337636,10.1204819 34.6987952,10.1204819 C28.9638267,10.1204819 24.2891747,11.3252892 20.6746988,13.7349398 C17.0602229,16.1445904 14.9638583,19.759012 14.3855422,24.5783133 L1.80722892,24.5783133 C2.28915904,16.6746593 5.46985012,10.6024308 11.3493976,6.36144578 C17.2289451,2.12046072 24.7710383,0 33.9759036,0 C43.1807689,0 50.6746699,2.50599904 56.4578313,7.51807229 C62.2409928,12.5301455 65.1325301,18.7228547 65.1325301,26.0963855 C65.1325301,33.4699164 63.2289347,39.3252795 59.4216867,43.6626506 C55.6144388,48.0000217 50.3855754,51.4698665 43.7349398,54.0722892 L25.373494,61.4457831 C20.7469648,63.3735036 17.3012161,65.5662528 15.0361446,68.0240964 C12.771073,70.48194 11.6385542,73.6867272 11.6385542,77.6385542 L11.6385542,81.9759036 Z M136.26506,24.5783133 C134.626498,15.1324829 129.469923,10.4096386 120.795181,10.4096386 C112.120439,10.4096386 105.445806,13.975868 100.771084,21.1084337 C96.0963623,28.2409995 93.7590361,37.9758419 93.7590361,50.313253 C93.7590361,55.4217123 93.9999976,59.6626337 94.4819277,63.0361446 C95.0602437,54.1686304 97.7831078,47.7349598 102.650602,43.7349398 C107.518097,39.7349198 113.758998,37.7349398 121.373494,37.7349398 C128.98799,37.7349398 135.542142,40.4096118 141.036145,45.7590361 C146.530148,51.1084605 149.277108,57.9517655 149.277108,66.2891566 C149.277108,74.6265477 146.433764,81.3734682 140.746988,86.5301205 C135.060212,91.6867726 127.590408,94.2650602 118.337349,94.2650602 C107.542115,94.2650602 98.8193105,89.9277542 92.1686747,81.253012 C85.518039,72.5782699 82.1927711,61.1807935 82.1927711,47.060241 C82.1927711,32.9396884 85.5662313,21.5663082 92.313253,12.939759 C99.0602747,4.31320988 108.265002,0 119.927711,0 C128.024137,0 134.62648,2.26503759 139.73494,6.79518072 C144.843399,11.3253239 147.783128,17.2529754 148.554217,24.5783133 L136.26506,24.5783133 Z M118.337349,47.8554217 C112.939732,47.8554217 108.433753,49.566248 104.819277,52.9879518 C101.204801,56.4096557 99.3975904,60.7710578 99.3975904,66.0722892 C99.3975904,71.3735205 101.180705,75.6385381 104.746988,78.8674699 C108.31327,82.0964017 112.843346,83.7108434 118.337349,83.7108434 C123.831352,83.7108434 128.385524,82.1204978 132,78.939759 C135.614476,75.7590202 137.421687,71.3735219 137.421687,65.7831325 C137.421687,60.1927431 135.614476,55.8072448 132,52.626506 C128.385524,49.4457672 123.831352,47.8554217 118.337349,47.8554217 Z" id="26"></path>
                </g>
            </g>
        </g>
    </g>
</svg>
